images/portal/4137.svg

<?xml version="1.0" standalone="no"?><!DOCTYPE svg PUBLIC "-//W3C//DTD SVG 1.1//EN" "http://www.w3.org/Graphics/SVG/1.1/DTD/svg11.dtd"><svg xmlns:xlink="http://www.w3.org/1999/xlink" version="1.1" class="highcharts-root" style="font-family:Arial;font-size:12px;" xmlns="http://www.w3.org/2000/svg" width="485" height="415"><desc>Created with Highcharts 5.0.7</desc><defs><clipPath id="highcharts-xnv0frq-1"><rect x="0" y="0" width="423" height="250" fill="none"></rect></clipPath></defs><rect fill="#fbfbfb" class="highcharts-background" x="0" y="0" width="485" height="415" rx="0" ry="0"></rect><rect fill="none" class="highcharts-plot-background" x="52" y="100" width="423" height="250"></rect><g class="highcharts-grid highcharts-xaxis-grid "><path fill="none" class="highcharts-grid-line" d="M 72.5 100 L 72.5 350" opacity="1"></path><path fill="none" class="highcharts-grid-line" d="M 107.5 100 L 107.5 350" opacity="1"></path><path fill="none" class="highcharts-grid-line" d="M 141.5 100 L 141.5 350" opacity="1"></path><path fill="none" class="highcharts-grid-line" d="M 176.5 100 L 176.5 350" opacity="1"></path><path fill="none" class="highcharts-grid-line" d="M 211.5 100 L 211.5 350" opacity="1"></path><path fill="none" class="highcharts-grid-line" d="M 245.5 100 L 245.5 350" opacity="1"></path><path fill="none" class="highcharts-grid-line" d="M 280.5 100 L 280.5 350" opacity="1"></path><path fill="none" class="highcharts-grid-line" d="M 314.5 100 L 314.5 350" opacity="1"></path><path fill="none" class="highcharts-grid-line" d="M 349.5 100 L 349.5 350" opacity="1"></path><path fill="none" class="highcharts-grid-line" d="M 384.5 100 L 384.5 350" opacity="1"></path><path fill="none" class="highcharts-grid-line" d="M 418.5 100 L 418.5 350" opacity="1"></path><path fill="none" class="highcharts-grid-line" d="M 453.5 100 L 453.5 350" opacity="1"></path></g><g class="highcharts-grid highcharts-yaxis-grid "><path fill="none" stroke="#e6e6e6" stroke-width="1" class="highcharts-grid-line" d="M 52 350.5 L 475 350.5" opacity="1"></path><path fill="none" stroke="#e6e6e6" stroke-width="1" class="highcharts-grid-line" d="M 52 288.5 L 475 288.5" opacity="1"></path><path fill="none" stroke="#e6e6e6" stroke-width="1" class="highcharts-grid-line" d="M 52 225.5 L 475 225.5" opacity="1"></path><path fill="none" stroke="#e6e6e6" stroke-width="1" class="highcharts-grid-line" d="M 52 163.5 L 475 163.5" opacity="1"></path><path fill="none" stroke="#e6e6e6" stroke-width="1" class="highcharts-grid-line" d="M 52 99.5 L 475 99.5" opacity="1"></path></g><rect fill="none" class="highcharts-plot-border" x="52" y="100" width="423" height="250"></rect><g class="highcharts-axis highcharts-xaxis "><path fill="none" class="highcharts-tick" stroke="#FFFFFF" stroke-width="1" d="M 72.5 350 L 72.5 360" opacity="1"></path><path fill="none" class="highcharts-tick" stroke="#FFFFFF" stroke-width="1" d="M 107.5 350 L 107.5 360" opacity="1"></path><path fill="none" class="highcharts-tick" stroke="#FFFFFF" stroke-width="1" d="M 141.5 350 L 141.5 360" opacity="1"></path><path fill="none" class="highcharts-tick" stroke="#FFFFFF" stroke-width="1" d="M 176.5 350 L 176.5 360" opacity="1"></path><path fill="none" class="highcharts-tick" stroke="#FFFFFF" stroke-width="1" d="M 211.5 350 L 211.5 360" opacity="1"></path><path fill="none" class="highcharts-tick" stroke="#FFFFFF" stroke-width="1" d="M 245.5 350 L 245.5 360" opacity="1"></path><path fill="none" class="highcharts-tick" stroke="#FFFFFF" stroke-width="1" d="M 280.5 350 L 280.5 360" opacity="1"></path><path fill="none" class="highcharts-tick" stroke="#FFFFFF" stroke-width="1" d="M 314.5 350 L 314.5 360" opacity="1"></path><path fill="none" class="highcharts-tick" stroke="#FFFFFF" stroke-width="1" d="M 349.5 350 L 349.5 360" opacity="1"></path><path fill="none" class="highcharts-tick" stroke="#FFFFFF" stroke-width="1" d="M 384.5 350 L 384.5 360" opacity="1"></path><path fill="none" class="highcharts-tick" stroke="#FFFFFF" stroke-width="1" d="M 418.5 350 L 418.5 360" opacity="1"></path><path fill="none" class="highcharts-tick" stroke="#FFFFFF" stroke-width="1" d="M 453.5 350 L 453.5 360" opacity="1"></path><path fill="none" class="highcharts-axis-line" stroke="#ccd6eb" stroke-width="1" d="M 52 350.5 L 475 350.5"></path></g><g class="highcharts-axis highcharts-yaxis "><path fill="none" class="highcharts-axis-line" d="M 52 100 L 52 350"></path></g><g class="highcharts-series-group"><g class="highcharts-series highcharts-series-0 highcharts-column-series highcharts-color-undefined highcharts-tracker" transform="translate(52,100) scale(1 1)" clip-path="url(#highcharts-xnv0frq-1)"><rect x="12.5" y="175.5" width="17" height="75" fill="#007a2f" class="highcharts-point" stroke="#ffffff" stroke-width="1"></rect><rect x="46.5" y="162.5" width="17" height="88" fill="#007a2f" class="highcharts-point" stroke="#ffffff" stroke-width="1"></rect><rect x="81.5" y="220.5" width="17" height="30" fill="#007a2f" class="highcharts-point" stroke="#ffffff" stroke-width="1"></rect><rect x="116.5" y="200.5" width="17" height="50" fill="#007a2f" class="highcharts-point" stroke="#ffffff" stroke-width="1"></rect><rect x="150.5" y="133.5" width="17" height="117" fill="#007a2f" class="highcharts-point" stroke="#ffffff" stroke-width="1"></rect><rect x="185.5" y="157.5" width="17" height="93" fill="#007a2f" class="highcharts-point" stroke="#ffffff" stroke-width="1"></rect><rect x="219.5" y="162.5" width="17" height="88" fill="#007a2f" class="highcharts-point" stroke="#ffffff" stroke-width="1"></rect><rect x="254.5" y="183.5" width="17" height="67" fill="#007a2f" class="highcharts-point" stroke="#ffffff" stroke-width="1"></rect><rect x="289.5" y="206.5" width="17" height="44" fill="#007a2f" class="highcharts-point" stroke="#ffffff" stroke-width="1"></rect><rect x="323.5" y="158.5" width="17" height="92" fill="#007a2f" class="highcharts-point" stroke="#ffffff" stroke-width="1"></rect><rect x="358.5" y="53.5" width="17" height="197" fill="#007a2f" class="highcharts-point" stroke="#ffffff" stroke-width="1"></rect></g><g class="highcharts-markers highcharts-series-0 highcharts-column-series highcharts-color-undefined " transform="translate(52,100) scale(1 1)" clip-path="none"></g><g class="highcharts-series highcharts-series-1 highcharts-column-series highcharts-color-undefined highcharts-tracker" transform="translate(52,100) scale(1 1)" clip-path="url(#highcharts-xnv0frq-1)"><rect x="393.5" y="150.5" width="17" height="100" fill="rgba(0, 122, 47, 0.38)" class="highcharts-point" stroke="#ffffff" stroke-width="1"></rect></g><g class="highcharts-markers highcharts-series-1 highcharts-column-series highcharts-color-undefined " transform="translate(52,100) scale(1 1)" clip-path="none"></g><g class="highcharts-series highcharts-series-2 highcharts-line-series highcharts-color-undefined " transform="translate(52,100) scale(1 1)" clip-path="url(#highcharts-xnv0frq-1)"><path fill="none" d="M 332.65384615385 175.5 L 367.26923076923 165.5 L 401.88461538462 164.5" class="highcharts-graph" stroke="#b00000" stroke-width="2" stroke-linejoin="round" stroke-linecap="round"></path><path fill="none" d="M 322.65384615385 175.5 L 332.65384615385 175.5 L 367.26923076923 165.5 L 401.88461538462 164.5 L 411.88461538462 164.5" stroke-linejoin="round" visibility="visible" stroke="rgba(192,192,192,0.0001)" stroke-width="22" class="highcharts-tracker"></path></g><g class="highcharts-markers highcharts-series-2 highcharts-line-series highcharts-color-undefined highcharts-tracker" transform="translate(52,100) scale(1 1)" clip-path="none"></g></g><text x="10" text-anchor="start" class="highcharts-title" style="color:#000000;font-size:14px;font-weight:bold;fill:#000000;" y="21"><tspan>I.09.1.0026 Anzahl neu erstellte Wohnungen</tspan></text><g class="highcharts-legend" transform="translate(10,30)"><rect fill="none" class="highcharts-legend-box" rx="0" ry="0" x="0" y="0" width="357" height="39" visibility="visible"></rect><g><g><g class="highcharts-legend-item highcharts-column-series highcharts-color-undefined highcharts-series-0" transform="translate(8,3)"><text x="21" style="color:#333333;font-size:12px;font-weight:normal;cursor:pointer;fill:#333333;" text-anchor="start" y="15">Neubau</text><rect x="2" y="4" width="12" height="12" fill="#007a2f" class="highcharts-point"></rect></g><g class="highcharts-legend-item highcharts-column-series highcharts-color-undefined highcharts-series-1" transform="translate(91.015625,3)"><text x="21" y="15" style="color:#333333;font-size:12px;font-weight:normal;cursor:pointer;fill:#333333;" text-anchor="start">Neubauprognose</text><rect x="2" y="4" width="12" height="12" fill="rgba(0, 122, 47, 0.38)" class="highcharts-point"></rect></g><g class="highcharts-legend-item highcharts-line-series highcharts-color-undefined highcharts-series-2" transform="translate(8,17)"><path fill="none" d="M 0 11 L 16 11" class="highcharts-graph" stroke="#b00000" stroke-width="2"></path><text x="21" y="15" style="color:#333333;font-size:12px;font-weight:normal;cursor:pointer;fill:#333333;" text-anchor="start"><tspan>Entwicklung des Zehnjahresdurchschnitts gemäss Prognose</tspan></text></g></g></g></g><g class="highcharts-axis-labels highcharts-xaxis-labels "><text x="73.1153846153815" style="color:#000000;cursor:default;font-size:11px;fill:#000000;" text-anchor="middle" transform="translate(0,0)" y="369" opacity="1">2005</text><text x="107.73076923076668" style="color:#000000;cursor:default;font-size:11px;fill:#000000;" text-anchor="middle" transform="translate(0,0)" y="369" opacity="1">2006</text><text x="142.34615384615188" style="color:#000000;cursor:default;font-size:11px;fill:#000000;" text-anchor="middle" transform="translate(0,0)" y="369" opacity="1">2007</text><text x="176.96153846153703" style="color:#000000;cursor:default;font-size:11px;fill:#000000;" text-anchor="middle" transform="translate(0,0)" y="369" opacity="1">2008</text><text x="211.57692307692224" style="color:#000000;cursor:default;font-size:11px;fill:#000000;" text-anchor="middle" transform="translate(0,0)" y="369" opacity="1">2009</text><text x="246.1923076923074" style="color:#000000;cursor:default;font-size:11px;fill:#000000;" text-anchor="middle" transform="translate(0,0)" y="369" opacity="1">2010</text><text x="280.8076923076926" style="color:#000000;cursor:default;font-size:11px;fill:#000000;" text-anchor="middle" transform="translate(0,0)" y="369" opacity="1">2011</text><text x="315.42307692307776" style="color:#000000;cursor:default;font-size:11px;fill:#000000;" text-anchor="middle" transform="translate(0,0)" y="369" opacity="1">2012</text><text x="350.03846153846297" style="color:#000000;cursor:default;font-size:11px;fill:#000000;" text-anchor="middle" transform="translate(0,0)" y="369" opacity="1">2013</text><text x="384.6538461538481" style="color:#000000;cursor:default;font-size:11px;fill:#000000;" text-anchor="middle" transform="translate(0,0)" y="369" opacity="1">2014</text><text x="419.26923076923333" style="color:#000000;cursor:default;font-size:11px;fill:#000000;" text-anchor="middle" transform="translate(0,0)" y="369" opacity="1">2015</text><text x="453.8846153846185" style="color:#000000;cursor:default;font-size:11px;fill:#000000;" text-anchor="middle" transform="translate(0,0)" y="369" opacity="1">2016</text></g><g class="highcharts-axis-labels highcharts-yaxis-labels "><text x="37" style="color:#000000;cursor:default;font-size:11px;fill:#000000;" text-anchor="end" transform="translate(0,0)" y="355" opacity="1"><tspan>0</tspan></text><text x="37" style="color:#000000;cursor:default;font-size:11px;fill:#000000;" text-anchor="end" transform="translate(0,0)" y="292" opacity="1"><tspan>250</tspan></text><text x="37" style="color:#000000;cursor:default;font-size:11px;fill:#000000;" text-anchor="end" transform="translate(0,0)" y="230" opacity="1"><tspan>500</tspan></text><text x="37" style="color:#000000;cursor:default;font-size:11px;fill:#000000;" text-anchor="end" transform="translate(0,0)" y="167" opacity="1"><tspan>750</tspan></text><text x="37" style="color:#000000;cursor:default;font-size:11px;fill:#000000;" text-anchor="end" transform="translate(0,0)" y="105" opacity="1"><tspan>1 000</tspan></text></g><text x="10" class="highcharts-credits" text-anchor="start" style="cursor:default;color:#000000;font-size:10px;fill:#000000;" y="400"><tspan>Quelle: Statistisches Amt Basel-Stadt, kantonale Gebäude- und Wohnungsstatistik</tspan></text></svg>

<svg class="highcharts-root" xmlns="http://www.w3.org/2000/svg" viewBox="0 0 485 415" font-family="Arial" font-size="12">
    <defs>
        <clipPath id="a">
            <path fill="none" d="M0 0h423v250H0z"/>
        </clipPath>
    </defs>
    <rect fill="#fbfbfb" class="highcharts-background" width="485" height="415" rx="0" ry="0"/>
    <path fill="none" class="highcharts-plot-background" d="M52 100h423v250H52z"/>
    <g class="highcharts-grid highcharts-xaxis-grid">
        <path fill="none" class="highcharts-grid-line" d="M72.5 100v250m35-250v250m34-250v250m35-250v250m35-250v250m34-250v250m35-250v250m34-250v250m35-250v250m35-250v250m34-250v250m35-250v250"/>
    </g>
    <g class="highcharts-grid highcharts-yaxis-grid">
        <path fill="none" stroke="#e6e6e6" class="highcharts-grid-line" d="M52 350.5h423m-423-62h423m-423-63h423m-423-62h423m-423-64h423"/>
    </g>
    <path fill="none" class="highcharts-plot-border" d="M52 100h423v250H52z"/>
    <g class="highcharts-axis highcharts-xaxis">
        <path fill="none" class="highcharts-tick" stroke="#FFF" d="M72.5 350v10m35-10v10m34-10v10m35-10v10m35-10v10m34-10v10m35-10v10m34-10v10m35-10v10m35-10v10m34-10v10m35-10v10"/>
        <path fill="none" class="highcharts-axis-line" stroke="#ccd6eb" d="M52 350.5h423"/>
    </g>
    <g class="highcharts-axis highcharts-yaxis">
        <path fill="none" class="highcharts-axis-line" d="M52 100v250"/>
    </g>
    <g class="highcharts-series-group">
        <g class="highcharts-series highcharts-series-0 highcharts-column-series highcharts-color-undefined highcharts-tracker" transform="translate(52 100)" clip-path="url(#a)">
            <path fill="#007a2f" class="highcharts-point" stroke="#fff" d="M12.5 175.5h17v75h-17zm34-13h17v88h-17zm35 58h17v30h-17zm35-20h17v50h-17zm34-67h17v117h-17zm35 24h17v93h-17zm34 5h17v88h-17zm35 21h17v67h-17zm35 23h17v44h-17zm34-48h17v92h-17zm35-105h17v197h-17z"/>
        </g>
        <g class="highcharts-series highcharts-series-1 highcharts-column-series highcharts-color-undefined highcharts-tracker" transform="translate(52 100)" clip-path="url(#a)">
            <path fill="rgba(0, 122, 47, 0.38)" class="highcharts-point" stroke="#fff" d="M393.5 150.5h17v100h-17z"/>
        </g>
        <g class="highcharts-series highcharts-series-2 highcharts-line-series highcharts-color-undefined" transform="translate(52 100)" clip-path="url(#a)">
            <path fill="none" d="M332.654 175.5l34.615-10 34.616-1" class="highcharts-graph" stroke="#b00000" stroke-width="2" stroke-linejoin="round" stroke-linecap="round"/>
            <path fill="none" d="M322.654 175.5h10l34.615-10 34.616-1h10" stroke-linejoin="round" stroke="rgba(192,192,192,0.0001)" stroke-width="22" class="highcharts-tracker"/>
        </g>
    </g>
    <text x="10" class="highcharts-title" y="21" color="#000" font-size="14" font-weight="700">
        <tspan>I.09.1.0026 Anzahl neu erstellte Wohnungen</tspan>
    </text>
    <g class="highcharts-legend" transform="translate(10 30)">
        <rect fill="none" class="highcharts-legend-box" rx="0" ry="0" width="357" height="39"/>
        <g class="highcharts-legend-item highcharts-column-series highcharts-color-undefined highcharts-series-0">
            <text x="21" y="15" color="#333" font-weight="400" cursor="pointer" fill="#333" transform="translate(8 3)">
                Neubau
            </text>
            <path fill="#007a2f" class="highcharts-point" d="M10 7h12v12H10z"/>
        </g>
        <g class="highcharts-legend-item highcharts-column-series highcharts-color-undefined highcharts-series-1">
            <text x="21" y="15" color="#333" font-weight="400" cursor="pointer" fill="#333" transform="translate(91.016 3)">
                Neubauprognose
            </text>
            <path fill="rgba(0, 122, 47, 0.38)" class="highcharts-point" d="M93.016 7h12v12h-12z"/>
        </g>
        <g class="highcharts-legend-item highcharts-line-series highcharts-color-undefined highcharts-series-2">
            <path fill="none" d="M8 28h16" class="highcharts-graph" stroke="#b00000" stroke-width="2"/>
            <text x="21" y="15" color="#333" font-weight="400" cursor="pointer" fill="#333" transform="translate(8 17)">
                <tspan>Entwicklung des Zehnjahresdurchschnitts gemäss Prognose</tspan>
            </text>
        </g>
    </g>
    <g class="highcharts-axis-labels highcharts-xaxis-labels" text-anchor="middle" color="#000" cursor="default" font-size="11">
        <text x="73.115" y="369">
            2005
        </text>
        <text x="107.731" y="369">
            2006
        </text>
        <text x="142.346" y="369">
            2007
        </text>
        <text x="176.962" y="369">
            2008
        </text>
        <text x="211.577" y="369">
            2009
        </text>
        <text x="246.192" y="369">
            2010
        </text>
        <text x="280.808" y="369">
            2011
        </text>
        <text x="315.423" y="369">
            2012
        </text>
        <text x="350.038" y="369">
            2013
        </text>
        <text x="384.654" y="369">
            2014
        </text>
        <text x="419.269" y="369">
            2015
        </text>
        <text x="453.885" y="369">
            2016
        </text>
    </g>
    <g class="highcharts-axis-labels highcharts-yaxis-labels" text-anchor="end" color="#000" cursor="default" font-size="11">
        <text x="37" y="355">
            <tspan>0</tspan>
        </text>
        <text x="37" y="292">
            <tspan>250</tspan>
        </text>
        <text x="37" y="230">
            <tspan>500</tspan>
        </text>
        <text x="37" y="167">
            <tspan>750</tspan>
        </text>
        <text x="37" y="105">
            <tspan>1 000</tspan>
        </text>
    </g>
    <text x="10" class="highcharts-credits" y="400" cursor="default" color="#000" font-size="10">
        <tspan>Quelle: Statistisches Amt Basel-Stadt, kantonale Gebäude- und Wohnungsstatistik</tspan>
    </text>
</svg>
